img/social-icon/facebook.svg

<svg width="111" height="110" viewBox="0 0 111 110" fill="none" xmlns="http://www.w3.org/2000/svg">
<g id="bi:facebook" clip-path="url(#clip0_283_965)">
<path id="Vector" d="M110.5 55.3369C110.5 24.7707 85.8737 -0.00683594 55.5 -0.00683594C25.1125 3.90629e-05 0.486252 24.7707 0.486252 55.3438C0.486252 82.9607 20.6025 105.854 46.8925 110.007V71.335H32.9362V55.3438H46.9062V43.1407C46.9062 29.2738 55.1219 21.615 67.6825 21.615C73.705 21.615 79.9956 22.6944 79.9956 22.6944V36.3069H73.0587C66.2319 36.3069 64.1006 40.5763 64.1006 44.9557V55.3369H79.3494L76.9156 71.3282H64.0938V110C90.3838 105.848 110.5 82.9538 110.5 55.3369Z" fill="white"/>
</g>
<defs>
<clipPath id="clip0_283_965">
<rect width="110" height="110" fill="white" transform="translate(0.5)"/>
</clipPath>
</defs>
</svg>

<svg width="111" height="110" viewBox="0 0 111 110" fill="none" xmlns="http://www.w3.org/2000/svg"><g id="bi:facebook" clip-path="url(#clip0_283_965)"><path id="Vector" d="M110.5 55.337c0-30.566-24.626-55.344-55-55.344C25.113 0 .486 24.771.486 55.343c0 27.618 20.116 50.511 46.407 54.664V71.335H32.935V55.344h13.97V43.14c0-13.867 8.216-21.526 20.777-21.526 6.022 0 12.313 1.08 12.313 1.08v13.612h-6.937c-6.827 0-8.958 4.27-8.958 8.649v10.38h15.248l-2.433 15.992H64.094V110c26.29-4.152 46.406-27.046 46.406-54.663z" fill="#fff"/></g><defs><clipPath id="clip0_283_965"><path fill="#fff" transform="translate(.5)" d="M0 0h110v110H0z"/></clipPath></defs></svg>
